X:092
U: ~ = !turn!
%%topmargin 3cm
T:In Summertime
T:Air
B:Traditional Irish Fiddle Tunes. Randy Miller and Jack Perron.
Z:Transcribed by Ralph Palmer
R:Air
M:3/4
L:1/8
K:D
A2 | A3 B d2 | e4 e2 | Pe3 f d2 | He4 A2 | d3 e f2 | Pg3 f e2 | Pf3 e d2 | HB6 |
g3 a ge | Jf3 e d2 | Pe4 A2 | Hd4 PB2 | A3 g f2 | Pg4 e2 | Pd4 B2 | HA4 |]
